X:1
T:Ardo si ma non t'amo
T:Piero Benedetti
T:Source : Musische di Piero Benedetti---Fiorenza---Heredes di C.Marescotti---1611. Editor André Vierendeels (19/05/15).
T:Notes : Original clefs : C1, F4 Figures in BC are notated in original print
T:S1
T:Ardo si ma non t'amo
C:Piero Benedetti
%%score 1 2
L:1/8
Q:1/4=85
M:4/4
K:F
V:1 treble nm="Soprano      1 + 2" snm="S"
V:2 bass nm="BC" snm="BC"
V:1
 B6 G2 | A8 | z2 d4 B2 | G8 | G8 | c2 cc ^c3 d | d4 d4 | z2 d2 BABG | A4 A4 | z cBA d4- | d3 A A4 | %11
w: Ar- do|si|ma non|t'a-|mo,|per- fi- d'è dis- pie-|ta- ta,|in- de- gna- men- te'a-|ma- ta|da si le- a-|* le'a- man-|
 G8 |: z2 c2 B3 A | A4 z ccc | d6 G2 | A4 A4 | z d e3 e ^c2- | c2 d2 e4 | d4 z2 A2 | B2 c4- c>B | %20
w: te.|Ne piu sa-|ra che del mio|duol ti|van- te|per- ch'ho gia tan-|* to'il co-|re, è|s'ar- do, _ _|
 c8 | z2 e4 dc | =B4 B4 ||"^S2" z2 c4 =BA | ^G4 G4 | z =B B2- _B3 B | B4 A4 | z A A2- A3 A | A8 |1 %29
w: _|ar- do di|sde- gno.|Ar- do di|sde- gno|è non _ d'A-|mo- re,|è non _ d'A-|mo-|
 G8 :|2 z A A2- A3 A || D/E/^F/G/ A/B/c/A/ B/A/B/c/ B/c/d/G/ | A4 G4- | G8 |] %34
w: re.|è non _ d'A-|mo- * * * * * * * * * * * * * * *|* re.|_|
V:2
 G,,8 |"^#" D,8 | A,4 D,4 | _E,4 =B,,2 C,2 |"^-natural" G,,8 | F,4 E,4 |"^#" D,8 | %7
"^6" B,4 G,2 G,2 | F,8 | E,4 z F,E,D, |"^4""^#" G,2 =B,,2 D,2 D,2 | G,,8 |:"^4""^3" C,2 C,4 C,2 | %13
 F,,4 F,4 | F,4 _E,4 |"^#" D,8 |"^-natural" G,4 A,4- | A,2 ^F,2 A,2 A,2 | D,8 | G,8 | C,8 | %21
 C,3 D, E,2 F,2 | G,4 G,4 || A,,3 =B,, C,2 D,2 | E,4 E,4 |"^#" E,4 ^C,4 | %26
"^4""^#""^#" E,2 E,2 A,,4 |"^#" D,4 =B,,4 |"^4""^#" D,4 D,4 |1 G,,8 :|2"^#" D,4 =B,,4 || %31
"^#""^#""^4" D,4 D,2 D,2- |"^#" D,2 D,2 G,,4- | G,,8 |] %34

